assets/img/logo_mobile.svg

<svg version="1.1" id="Layer_1" xmlns="http://www.w3.org/2000/svg" x="0" y="0" viewBox="0 0 10.9 8.4" xml:space="preserve"><style>.st0{fill:#ff4b68}</style><g id="XMLID_1_"><path id="XMLID_42_" class="st0" d="M4.3 1.3v.5c0 .1 0 .1-.1.1H1.6v2h2.5v1.2c0 .1 0 .1-.1.1H1.6v2.9l-.1.1H.3s-.1 0-.1-.1v-7C.2.9.2.8.3.7S.5.6.6.6h3.7l.1.1v.2c0 .1-.1.3-.1.4z"/><path id="XMLID_44_" class="st0" d="M10.8 2.9c0 .4-.1.8-.2 1.1s-.3.7-.6.9-.6.4-.9.5-.8.2-1.3.2h-.7v2.5l-.1.1H5.8s-.1 0-.1-.1V1.2c0-.2 0-.3.1-.4s.2-.2.3-.2h2.3c.1 0 .4 0 .6.1s.5.2.7.3.4.3.6.5.3.4.4.7.1.4.1.7zm-1.6.2c0-.3 0-.5-.1-.7s-.3-.3-.4-.4-.3-.1-.4-.1H7.1v2.6h.7c.2 0 .5 0 .6-.1s.4-.3.5-.4.1-.2.2-.4.1-.3.1-.5z"/></g></svg>

<?xml version="1.0" encoding="utf-8"?>
<!-- Generator: Adobe Illustrator 19.0.0, SVG Export Plug-In . SVG Version: 6.00 Build 0)  -->
<svg version="1.1" id="Layer_1" xmlns="http://www.w3.org/2000/svg" xmlns:xlink="http://www.w3.org/1999/xlink" x="0px" y="0px"
	 viewBox="0 0 10.9 8.4" style="enable-background:new 0 0 10.9 8.4;" xml:space="preserve">
<style type="text/css">
	.st0{fill:#ff4b68;}
</style>
<g id="XMLID_1_">
	<path id="XMLID_42_" class="st0" d="M4.3,1.3c0,0.1,0,0.2,0,0.3s0,0.1,0,0.2s0,0.1-0.1,0.1s-0.1,0-0.1,0H1.6v2H4c0,0,0.1,0,0.1,0
		S4.1,4,4.1,4.1s0,0.1,0,0.2s0,0.2,0,0.3s0,0.2,0,0.3s0,0.1,0,0.2s0,0.1-0.1,0.1S4,5.2,4,5.2H1.6V8c0,0,0,0.1,0,0.1S1.5,8.2,1.5,8.2
		s-0.1,0-0.2,0s-0.2,0-0.4,0c-0.1,0-0.3,0-0.4,0s-0.2,0-0.2,0s-0.1,0-0.1-0.1s0-0.1,0-0.1V1.1c0-0.2,0-0.3,0.1-0.4s0.2-0.1,0.3-0.1
		h3.6c0,0,0.1,0,0.1,0s0.1,0.1,0.1,0.1s0,0.1,0,0.2S4.3,1.2,4.3,1.3z"/>
	<path id="XMLID_44_" class="st0" d="M10.8,2.9c0,0.4-0.1,0.8-0.2,1.1S10.3,4.7,10,4.9S9.4,5.3,9.1,5.4S8.3,5.6,7.8,5.6H7.1V8
		c0,0,0,0.1,0,0.1S7,8.2,7,8.2s-0.1,0-0.2,0s-0.2,0-0.4,0c-0.1,0-0.3,0-0.4,0s-0.2,0-0.2,0s-0.1,0-0.1-0.1s0-0.1,0-0.1V1.2
		c0-0.2,0-0.3,0.1-0.4S6,0.6,6.1,0.6h1.8c0.2,0,0.4,0,0.5,0s0.4,0,0.6,0.1S9.5,0.9,9.7,1s0.4,0.3,0.6,0.5s0.3,0.4,0.4,0.7
		S10.8,2.6,10.8,2.9z M9.2,3.1c0-0.3,0-0.5-0.1-0.7S8.8,2.1,8.7,2S8.4,1.9,8.3,1.9s-0.3,0-0.5,0H7.1v2.6h0.7c0.2,0,0.5,0,0.6-0.1
		S8.8,4.1,8.9,4S9,3.8,9.1,3.6S9.2,3.3,9.2,3.1z"/>
</g>
</svg>
